src/telerik-icons/solid/table-row-insert-above.svg

<?xml version="1.0" encoding="utf-8"?>
<svg xmlns="http://www.w3.org/2000/svg" width="512" height="512" viewBox="0 0 512 512">
  <path d="M480 160H0V32h480v128zM32 192h416v288H32V192zm32 32v96h96v-96H64zm128 0v96h96v-96h-96zm128 0v96h96v-96h-96zm96 224v-96h-96v96h96zm-128-96h-96v96h96v-96zm-128 96v-96H64v96h96z"/>
</svg>

<?xml version="1.0" encoding="utf-8"?>
<!-- Generator: Adobe Illustrator 19.2.1, SVG Export Plug-In . SVG Version: 6.00 Build 0)  -->
<svg xmlns="http://www.w3.org/2000/svg" width="512" height="512" viewBox="0 0 512 512">
<path d="M480,160H0V32h480V160z M32,192h416v288H32V192z M64,224v96h96v-96H64z M192,224v96h96v-96H192z M320,224v96h96v-96H320z
	 M416,448v-96h-96v96H416z M288,352h-96v96h96V352z M160,448v-96H64v96H160z" />
</svg>
